X:214
T:Quadrille TS.214
M:2/4
L:1/8
Q:1/4=100
S:Thomas Sands’ MS,1810,Lincolnshire
R:quadrille
O:England;Lincolnshire
Z:vmp.Ruairidh Greig, 2011
K:A
cccc|(e/d/)(d/c/)B2|(d/c/)(c/B/)A2|(c/B/)(B/G/)E2|
cccc|(e/d/)(d/c/)B2|(d/c/)(c/A/) (c/B/)(B/G/)|AcAz||
Bece|dece|Becf|e^d e^d/=d/|
cccc|e/d/d/c/B2|d/c/c/A/ c/B/B/G/|AcA2||
A/>G/A/>G/ A/>G/A/>G/|AEc2|A/>G/A/>G/ A/>G/A/>G/|AEc2|
B/>A/B/>A/ B/>A/B/>A/|BEsd2|B/>A/B/>A/ B/>A/B/>A/|BE “D.C.”d/c/e/d/|]

